ES4T1/32/aimg/lentes.svg

<svg clip-rule="evenodd" fill-rule="evenodd" stroke-linejoin="round" stroke-miterlimit="2" viewBox="0 0 462 137" xmlns="http://www.w3.org/2000/svg"><g fill-rule="nonzero"><path d="m0-3.145c4.31.473 8.518 1.288 12.697 2.35-3.063-.42-6.137-.27-9.223.254-1.318.224-2.739.449-4.138.775-.011-.009-.018-.024-.034-.028-4.426-1.332-9.132-1.294-12.789 1.67-.772-.514-1.859-.857-2.992-1.093 3.217-5.804 10.914-4.538 16.479-3.928" fill="#f15a29" transform="matrix(5.55556 0 0 5.55556 371.05689024 24.16942028)"/><path d="m0 13.365c-8.276-1.451-17.544-7.8-25.087-1.347-.015.012-.019.027-.031.039-.887.824-2.352.63-2.775-.543-.363-1.005.072-1.887.56-2.768.003-.006.002-.012.006-.019 5.809-8.727 19.916-.695 27.952 1.059-.52.839-.683 2.458-.625 3.579" fill="#f15a29" transform="matrix(5.55556 0 0 5.55556 160.04561032 -15.10283336)"/><path d="m0 2.3c-.036-.335.062-.777.088-1.109.076-.937-.072-2.005 1.004-2.292.018.088.069.162.144.198-.083.557-.15 1.117-.218 1.676-.068.553.003 1.635-.257 2.107-.287.521-.717-.159-.761-.58" fill="#ef3f36" transform="matrix(5.55556 0 0 5.55556 163.5900576 45.77499312)"/><path d="m0 13.855c-7.301 2.881-14.107-3.062-14.583-10.292-.014-.211-.182-.319-.345-.322-.035-.077-.102-.141-.211-.167-1.433-.34-2.846-.297-4.286-.003-.829.17-1.975.298-2.667.881-.219-.097-.546.01-.567.328-.437 6.65-3.403 11.937-10.661 12.552-6.895.584-11.945-4.752-12.23-11.385-.004-.102-.071-.154-.146-.179.062-.06.12-.131.169-.224.286-.533.214-1.468.29-2.061.118-.933.257-1.867.336-2.806 3.447-1.313 6.958-2.104 10.687-2.155 1.6-.023 10.919.167 11.658 2.629.047.154.166.225.291.232.005.003.001.013.007.012 1.133-.012 2.214-.698 3.373-.825 1.165-.127 2.279.018 3.385.34.086.083.2.126.315.091.047.015.094.025.141.041.27.09.423-.155.383-.371 5.221-3.552 14.016-3.732 19.895-2.941.022.003.037-.009.057-.014-.015.051-.02.106 0 .174 1.551 5.164.424 14.21-5.291 16.465" fill="#f36f42" transform="matrix(5.55556 0 0 5.55556 423.60693228 38.81387644)"/><path d="m0 12.937c-6.372.799-9.592-5.153-9.897-10.681-.001-.009-.009-.012-.011-.021.028.001.055.001.086-.009 5.44-1.687 12.468-3.025 17.956-.839.023.009.042.008.063.011-.001.011-.008.018-.009.029-.528 5.177-2.125 10.75-8.188 11.51" fill="#ccecfc" transform="matrix(5.55556 0 0 5.55556 240.58456364 44.40832536)"/><path d="m0 11.897c-5.165.869-9.908-3.93-10.142-8.995-.005-.119-.071-.188-.152-.233 1.802-1.625 5.232-2.147 7.525-2.666 3.016-.682 5.863-.872 8.87-.311.269 4.806-.176 11.209-6.101 12.205" fill="#ccecfc" transform="matrix(5.55556 0 0 5.55556 411.39025584 35.98054084)"/><path d="m0 .966c1.742-.268 3.501-.283 5.259-.22 2.126.075 4.251.191 6.377.289 2.141.099 4.281.171 6.425.174.067 0 .133-.001.201-.001-2.476-.494-4.969-.902-7.499-1.179-5.065-.556-11.882-1.636-15.495 2.544 1.442-.862 3.08-1.353 4.732-1.607" fill="#fff" opacity=".2" transform="matrix(5.55556 0 0 5.55556 311.26239796 6.53607284)"/><path d="m0 11.082c1.211-1.306 2.23-2.857 3.789-3.789.852-.508 1.823-.739 2.795-.891 1.072-.168 2.158-.22 3.242-.219 1.072.001 2.143.057 3.213.122 1.105.067 2.211.248 3.297.452 1.145.216 2.28.48 3.406.778 1.074.285 2.166.57 3.21.955 1.718.635 3.436 1.666 5.292 1.804.076-.219.162-.423.265-.591-8.036-1.754-22.142-9.786-27.952-1.059-.003.006-.002.012-.006.019-.445.802-.837 1.606-.632 2.502.027-.028.055-.055.081-.083" fill="#fff" opacity=".2" transform="matrix(5.55556 0 0 5.55556 5.13437528 -14.64172188)"/><path d="m0 9.613c.822-.786 1.618-1.62 2.239-2.577.563-.866.986-1.863.957-2.914-.018-.646-.174-1.28-.179-1.926-.006-.672.204-1.288.508-1.88.29-.565.654-1.085 1.05-1.581-1.471-.248-2.998-.323-4.54-.26-.938.998-1.934 1.944-2.8 3.007-.171.211-.37.428-.497.669-.07.133-.03.244.029.373.116.254.232.495.42.704.169.19.328.37.394.622.141.542-.045 1.107-.273 1.596-.242.519-.546 1.013-.867 1.484-.705 1.036-1.536 1.965-2.404 2.862 1.17.851 2.578 1.371 4.228 1.409.582-.526 1.168-1.046 1.735-1.588" fill="#fff" transform="matrix(5.55556 0 0 5.55556 242.95678776 54.39166668)"/><path d="m0 12.048c.457-.587.888-1.192 1.164-1.883.203-.507.344-1.068.353-1.616.008-.534-.171-1.034-.384-1.517-.226-.508-.46-1.006-.596-1.547-.127-.506-.201-1.027-.204-1.548-.006-.963.245-1.901.68-2.757.285-.561.643-1.08 1.034-1.574-1.323.009-2.642.142-3.985.39-.83.427-1.541 1.052-1.943 1.913-.202.434-.322.908-.374 1.384-.062.571-.053 1.169.058 1.734.122.623.333 1.224.44 1.851.104.601.084 1.192-.108 1.774-.318.958-.963 1.768-1.657 2.488 1.546.884 3.328 1.302 5.166.992.126-.021.235-.059.356-.084" fill="#fff" transform="matrix(5.55556 0 0 5.55556 413.3680352 34.67498424)"/><g fill="#231f20"><path d="m0 2.653c3.597-1.422 7.257-2.277 11.154-2.331 1.601-.023 10.92.167 11.659 2.63.123.408.765.234.64-.176-.733-2.403-6.462-2.69-8.411-2.905-5.242-.578-10.324.259-15.198 2.216-.345.139-.197.705.156.566" transform="matrix(5.55556 0 0 5.55556 171.55673064 26.03608844)"/><path d="m0 1.576c1.133-.012 2.213-.698 3.373-.825 1.325-.145 2.585.049 3.841.471.402.136.557-.479.173-.627-1.299-.501-2.716-.595-4.09-.406-1.057.145-2.667.407-3.324 1.339-.015.02.005.048.027.048" transform="matrix(5.55556 0 0 5.55556 299.9512778 35.03054008)"/><path d="m0-2.916c-3.751-.851-7.517-.754-11.301-.112-3.166.537-6.941 1.05-9.539 3.076-.316.246.107.803.433.561 5.157-3.841 14.286-4.042 20.326-3.23.188.026.279-.25.081-.295" transform="matrix(5.55556 0 0 5.55556 453.14028924 37.986098)"/><path d="m0-10.693c.073 6.716 4.965 12.348 11.961 12.213 8.17-.157 11.631-6.099 12.11-13.38.032-.488-.727-.486-.759 0-.437 6.65-3.403 11.938-10.661 12.552-6.896.584-11.945-4.752-12.23-11.385-.011-.27-.424-.272-.421 0" transform="matrix(5.55556 0 0 5.55556 168.21228352 128.48061484)"/><path d="m0 1.686c.753-.687 2.292-.859 3.257-1.006 1.183-.181 2.294-.167 3.466.126.419.105.598-.546.178-.645-1.433-.341-2.846-.298-4.286-.004-.977.2-2.402.336-2.996 1.235-.157.238.185.474.381.294" transform="matrix(5.55556 0 0 5.55556 301.16238988 55.00277828)"/><path d="m0-6.48c.181 7.187 6.395 12.922 13.711 11.563 7.321-1.359 9.999-11.724 7.43-17.901-.148-.355-.714-.229-.597.165 1.551 5.164.424 14.21-5.291 16.465-7.301 2.881-14.107-3.062-14.584-10.292-.027-.426-.68-.435-.669 0" transform="matrix(5.55556 0 0 5.55556 338.8679756 94.60836552)"/><path d="m0-4.672c-2.112-1.417-2.36 4.013-1.898 4.956.327.665 1.296 1.133 1.731.321.287-.533.215-1.468.29-2.061.121-.956.265-1.912.344-2.873.029-.354-.568-.44-.627-.085-.111.664-.184 1.332-.265 2-.068.553.003 1.636-.257 2.107-.287.521-.716-.158-.761-.58-.036-.335.062-.777.089-1.109.081-1.011-.118-2.188 1.267-2.355.167-.021.237-.22.087-.321" transform="matrix(5.55556 0 0 5.55556 171.60673068 63.48056284)"/><path d="m15.294-9.324c-6.555 7.167-.12 16.565.695 24.629.046.447-.634.627-.695.166-1.095-8.408-7.288-17.937-.531-25.363.337-.371.868.2.531.568" transform="matrix(-.18843237297 5.552365553 5.552365553 .18843237297 78.37887832 -28.44173292)"/><path d="m0-4.875c-.728 1.325-1.242 2.828-.215 4.167.889 1.162 2.713 1.041 3.696.051.342-.344-.186-.871-.532-.532-.883.865-2.386.677-2.815-.513-.363-1.005.072-1.887.56-2.768.251-.452-.444-.859-.694-.405" transform="matrix(5.55556 0 0 5.55556 4.33437464 58.31389204)"/><path d="m-19.144-10.016c1.963 8.078 9.828 23.505.387 29.513-.43.274-.814-.416-.387-.69 9.09-5.825.615-20.696-.692-28.645-.074-.446.582-.632.692-.178" transform="matrix(.09444563111 -5.5547544438 -5.5547544438 -.09444563111 114.44001828 -71.0973226)"/><path d="m0 2.771c-5.501-3.083-13.42-3.409-19.623-3.785-4.909-.298-10.325-.135-12.651 4.906-.173.374.366.705.562.328 3.145-6.046 10.967-4.743 16.6-4.126 5.1.56 10.062 1.576 15 2.945.158.044.259-.186.112-.268" transform="matrix(5.55556 0 0 5.55556 455.01251296 6.17496144)"/><path d="m-7.149-7.177c2.13 4.151 2.943 8.836.609 12.999-.235.418-.832-.008-.609-.421 2.179-4.048 1.035-8.326-.246-12.497-.044-.145.181-.207.246-.081" transform="matrix(-1.00395080316 -5.46409326016 -5.46409326016 1.00395080316 320.7846278 -6.5417154)"/><path d="m10.34-7.157c-1.252 5.557-2.029 12.668.584 17.966.166.337-.387.621-.584.303-3.099-5.016-1.831-12.985-.514-18.367.08-.326.589-.233.514.098" transform="matrix(.43941535153 5.53815443052 5.53815443052 -.43941535153 221.11232584 -3.63615752)"/><path d="m0-10.56c.084 5.59 3.482 11.938 9.89 11.563 6.9-.403 9.079-6.459 9.631-12.393.051-.548-.8-.541-.855 0-.529 5.18-2.129 10.751-8.195 11.511-6.371.798-9.592-5.154-9.897-10.681-.02-.366-.58-.372-.574 0" transform="matrix(5.55556 0 0 5.55556 182.41229488 115.60838232)"/><path d="m0 4.188c1.79-1.657 5.263-2.181 7.575-2.704 3.186-.721 6.183-.903 9.382-.218.467.1.668-.62.198-.72-3.503-.739-6.911-.462-10.369.393-2.232.552-5.739.944-7.197 2.932-.181.248.203.51.411.317" transform="matrix(5.55556 0 0 5.55556 353.92909876 27.75275648)"/><path d="m0-6.708c.065 5.268 4.853 10.479 10.313 9.894 6.706-.719 7.672-7.639 7.396-13.107-.028-.556-.899-.558-.868 0 .27 4.807-.182 11.212-6.107 12.208-5.165.869-9.908-3.93-10.141-8.995-.017-.379-.598-.384-.593 0" transform="matrix(5.55556 0 0 5.55556 351.7568748 89.36947244)"/></g></g></svg>

<?xml version="1.0" encoding="UTF-8" standalone="no"?>
<!DOCTYPE svg PUBLIC "-//W3C//DTD SVG 1.1//EN" "http://www.w3.org/Graphics/SVG/1.1/DTD/svg11.dtd">
<svg width="100%" height="100%" viewBox="0 0 462 137" version="1.1" xmlns="http://www.w3.org/2000/svg" xmlns:xlink="http://www.w3.org/1999/xlink" xml:space="preserve" xmlns:serif="http://www.serif.com/" style="fill-rule:evenodd;clip-rule:evenodd;stroke-linejoin:round;stroke-miterlimit:2;">
    <g transform="matrix(1,0,0,1,-19456.7,-10207)">
        <g transform="matrix(5.55556,0,0,5.55556,18159.4,9566.93)">
            <g transform="matrix(1,0,0,1,300.304,119.563)">
                <path d="M0,-3.145C4.31,-2.672 8.518,-1.857 12.697,-0.795C9.634,-1.215 6.56,-1.065 3.474,-0.541C2.156,-0.317 0.735,-0.092 -0.664,0.234C-0.675,0.225 -0.682,0.21 -0.698,0.206C-5.124,-1.126 -9.83,-1.088 -13.487,1.876C-14.259,1.362 -15.346,1.019 -16.479,0.783C-13.262,-5.021 -5.565,-3.755 0,-3.145" style="fill:rgb(241,90,41);fill-rule:nonzero;"/>
            </g>
        </g>
        <g transform="matrix(5.55556,0,0,5.55556,18159.4,9566.93)">
            <g transform="matrix(1,0,0,1,262.322,112.494)">
                <path d="M0,13.365C-8.276,11.914 -17.544,5.565 -25.087,12.018C-25.102,12.03 -25.106,12.045 -25.118,12.057C-26.005,12.881 -27.47,12.687 -27.893,11.514C-28.256,10.509 -27.821,9.627 -27.333,8.746C-27.33,8.74 -27.331,8.734 -27.327,8.727C-21.518,0 -7.411,8.032 0.625,9.786C0.105,10.625 -0.058,12.244 0,13.365" style="fill:rgb(241,90,41);fill-rule:nonzero;"/>
            </g>
        </g>
        <g transform="matrix(5.55556,0,0,5.55556,18159.4,9566.93)">
            <g transform="matrix(1,0,0,1,262.96,123.452)">
                <path d="M0,2.3C-0.036,1.965 0.062,1.523 0.088,1.191C0.164,0.254 0.016,-0.814 1.092,-1.101C1.11,-1.013 1.161,-0.939 1.236,-0.903C1.153,-0.346 1.086,0.214 1.018,0.773C0.95,1.326 1.021,2.408 0.761,2.88C0.474,3.401 0.044,2.721 0,2.3" style="fill:rgb(239,63,54);fill-rule:nonzero;"/>
            </g>
        </g>
        <g transform="matrix(5.55556,0,0,5.55556,18159.4,9566.93)">
            <g transform="matrix(1,0,0,1,309.763,122.199)">
                <path d="M0,13.855C-7.301,16.736 -14.107,10.793 -14.583,3.563C-14.597,3.352 -14.765,3.244 -14.928,3.241C-14.963,3.164 -15.03,3.1 -15.139,3.074C-16.572,2.734 -17.985,2.777 -19.425,3.071C-20.254,3.241 -21.4,3.369 -22.092,3.952C-22.311,3.855 -22.638,3.962 -22.659,4.28C-23.096,10.93 -26.062,16.217 -33.32,16.832C-40.215,17.416 -45.265,12.08 -45.55,5.447C-45.554,5.345 -45.621,5.293 -45.696,5.268C-45.634,5.208 -45.576,5.137 -45.527,5.044C-45.241,4.511 -45.313,3.576 -45.237,2.983C-45.119,2.05 -44.98,1.116 -44.901,0.177C-41.454,-1.136 -37.943,-1.927 -34.214,-1.978C-32.614,-2.001 -23.295,-1.811 -22.556,0.651C-22.509,0.805 -22.39,0.876 -22.265,0.883C-22.26,0.886 -22.264,0.896 -22.258,0.895C-21.125,0.883 -20.044,0.197 -18.885,0.07C-17.72,-0.057 -16.606,0.088 -15.5,0.41C-15.414,0.493 -15.3,0.536 -15.185,0.501C-15.138,0.516 -15.091,0.526 -15.044,0.542C-14.774,0.632 -14.621,0.387 -14.661,0.171C-9.44,-3.381 -0.645,-3.561 5.234,-2.77C5.256,-2.767 5.271,-2.779 5.291,-2.784C5.276,-2.733 5.271,-2.678 5.291,-2.61C6.842,2.554 5.715,11.6 0,13.855" style="fill:rgb(243,111,66);fill-rule:nonzero;"/>
            </g>
        </g>
        <g transform="matrix(5.55556,0,0,5.55556,18159.4,9566.93)">
            <g transform="matrix(1,0,0,1,276.819,123.206)">
                <path d="M0,12.937C-6.372,13.736 -9.592,7.784 -9.897,2.256C-9.898,2.247 -9.906,2.244 -9.908,2.235C-9.88,2.236 -9.853,2.236 -9.822,2.226C-4.382,0.539 2.646,-0.799 8.134,1.387C8.157,1.396 8.176,1.395 8.197,1.398C8.196,1.409 8.189,1.416 8.188,1.427C7.66,6.604 6.063,12.177 0,12.937" style="fill:rgb(204,236,252);fill-rule:nonzero;"/>
            </g>
        </g>
        <g transform="matrix(5.55556,0,0,5.55556,18159.4,9566.93)">
            <g transform="matrix(1,0,0,1,307.564,121.689)">
                <path d="M0,11.897C-5.165,12.766 -9.908,7.967 -10.142,2.902C-10.147,2.783 -10.213,2.714 -10.294,2.669C-8.492,1.044 -5.062,0.522 -2.769,0.003C0.247,-0.679 3.094,-0.869 6.101,-0.308C6.37,4.498 5.925,10.901 0,11.897" style="fill:rgb(204,236,252);fill-rule:nonzero;"/>
            </g>
        </g>
        <g transform="matrix(5.55556,0,0,5.55556,18159.4,9566.93)">
            <g opacity="0.2">
                <g transform="matrix(1,0,0,1,289.541,116.389)">
                    <path d="M0,0.966C1.742,0.698 3.501,0.683 5.259,0.746C7.385,0.821 9.51,0.937 11.636,1.035C13.777,1.134 15.917,1.206 18.061,1.209C18.128,1.209 18.194,1.208 18.262,1.208C15.786,0.714 13.293,0.306 10.763,0.029C5.698,-0.527 -1.119,-1.607 -4.732,2.573C-3.29,1.711 -1.652,1.22 0,0.966" style="fill:white;fill-rule:nonzero;"/>
                </g>
            </g>
        </g>
        <g transform="matrix(5.55556,0,0,5.55556,18159.4,9566.93)">
            <g opacity="0.2">
                <g transform="matrix(1,0,0,1,234.438,112.577)">
                    <path d="M0,11.082C1.211,9.776 2.23,8.225 3.789,7.293C4.641,6.785 5.612,6.554 6.584,6.402C7.656,6.234 8.742,6.182 9.826,6.183C10.898,6.184 11.969,6.24 13.039,6.305C14.144,6.372 15.25,6.553 16.336,6.757C17.481,6.973 18.616,7.237 19.742,7.535C20.816,7.82 21.908,8.105 22.952,8.49C24.67,9.125 26.388,10.156 28.244,10.294C28.32,10.075 28.406,9.871 28.509,9.703C20.473,7.949 6.367,-0.083 0.557,8.644C0.554,8.65 0.555,8.656 0.551,8.663C0.106,9.465 -0.286,10.269 -0.081,11.165C-0.054,11.137 -0.026,11.11 0,11.082" style="fill:white;fill-rule:nonzero;"/>
                </g>
            </g>
        </g>
        <g transform="matrix(5.55556,0,0,5.55556,18159.4,9566.93)">
            <g transform="matrix(1,0,0,1,277.246,125.003)">
                <path d="M0,9.613C0.822,8.827 1.618,7.993 2.239,7.036C2.802,6.17 3.225,5.173 3.196,4.122C3.178,3.476 3.022,2.842 3.017,2.196C3.011,1.524 3.221,0.908 3.525,0.316C3.815,-0.249 4.179,-0.769 4.575,-1.265C3.104,-1.513 1.577,-1.588 0.035,-1.525C-0.903,-0.527 -1.899,0.419 -2.765,1.482C-2.936,1.693 -3.135,1.91 -3.262,2.151C-3.332,2.284 -3.292,2.395 -3.233,2.524C-3.117,2.778 -3.001,3.019 -2.813,3.228C-2.644,3.418 -2.485,3.598 -2.419,3.85C-2.278,4.392 -2.464,4.957 -2.692,5.446C-2.934,5.965 -3.238,6.459 -3.559,6.93C-4.264,7.966 -5.095,8.895 -5.963,9.792C-4.793,10.643 -3.385,11.163 -1.735,11.201C-1.153,10.675 -0.567,10.155 0,9.613" style="fill:white;fill-rule:nonzero;"/>
            </g>
        </g>
        <g transform="matrix(5.55556,0,0,5.55556,18159.4,9566.93)">
            <g transform="matrix(1,0,0,1,307.92,121.454)">
                <path d="M0,12.048C0.457,11.461 0.888,10.856 1.164,10.165C1.367,9.658 1.508,9.097 1.517,8.549C1.525,8.015 1.346,7.515 1.133,7.032C0.907,6.524 0.673,6.026 0.537,5.485C0.41,4.979 0.336,4.458 0.333,3.937C0.327,2.974 0.578,2.036 1.013,1.18C1.298,0.619 1.656,0.1 2.047,-0.394C0.724,-0.385 -0.595,-0.252 -1.938,-0.004C-2.768,0.423 -3.479,1.048 -3.881,1.909C-4.083,2.343 -4.203,2.817 -4.255,3.293C-4.317,3.864 -4.308,4.462 -4.197,5.027C-4.075,5.65 -3.864,6.251 -3.757,6.878C-3.653,7.479 -3.673,8.07 -3.865,8.652C-4.183,9.61 -4.828,10.42 -5.522,11.14C-3.976,12.024 -2.194,12.442 -0.356,12.132C-0.23,12.111 -0.121,12.073 0,12.048" style="fill:white;fill-rule:nonzero;"/>
            </g>
        </g>
        <g transform="matrix(5.55556,0,0,5.55556,18159.4,9566.93)">
            <g transform="matrix(1,0,0,1,264.394,119.899)">
                <path d="M0,2.653C3.597,1.231 7.257,0.376 11.154,0.322C12.755,0.299 22.074,0.489 22.813,2.952C22.936,3.36 23.578,3.186 23.453,2.776C22.72,0.373 16.991,0.086 15.042,-0.129C9.8,-0.707 4.718,0.13 -0.156,2.087C-0.501,2.226 -0.353,2.792 0,2.653" style="fill:rgb(35,31,32);fill-rule:nonzero;"/>
            </g>
        </g>
        <g transform="matrix(5.55556,0,0,5.55556,18159.4,9566.93)">
            <g transform="matrix(1,0,0,1,287.505,121.518)">
                <path d="M0,1.576C1.133,1.564 2.213,0.878 3.373,0.751C4.698,0.606 5.958,0.8 7.214,1.222C7.616,1.358 7.771,0.743 7.387,0.595C6.088,0.094 4.671,0 3.297,0.189C2.24,0.334 0.63,0.596 -0.027,1.528C-0.042,1.548 -0.022,1.576 0,1.576" style="fill:rgb(35,31,32);fill-rule:nonzero;"/>
            </g>
        </g>
        <g transform="matrix(5.55556,0,0,5.55556,18159.4,9566.93)">
            <g transform="matrix(1,0,0,1,315.079,122.05)">
                <path d="M0,-2.916C-3.751,-3.767 -7.517,-3.67 -11.301,-3.028C-14.467,-2.491 -18.242,-1.978 -20.84,0.048C-21.156,0.294 -20.733,0.851 -20.407,0.609C-15.25,-3.232 -6.121,-3.433 -0.081,-2.621C0.107,-2.595 0.198,-2.871 0,-2.916" style="fill:rgb(35,31,32);fill-rule:nonzero;"/>
            </g>
        </g>
        <g transform="matrix(5.55556,0,0,5.55556,18159.4,9566.93)">
            <g transform="matrix(1,0,0,1,263.792,138.339)">
                <path d="M0,-10.693C0.073,-3.977 4.965,1.655 11.961,1.52C20.131,1.363 23.592,-4.579 24.071,-11.86C24.103,-12.348 23.344,-12.346 23.312,-11.86C22.875,-5.21 19.909,0.078 12.651,0.692C5.755,1.276 0.706,-4.06 0.421,-10.693C0.41,-10.963 -0.003,-10.965 0,-10.693" style="fill:rgb(35,31,32);fill-rule:nonzero;"/>
            </g>
        </g>
        <g transform="matrix(5.55556,0,0,5.55556,18159.4,9566.93)">
            <g transform="matrix(1,0,0,1,287.723,125.113)">
                <path d="M0,1.686C0.753,0.999 2.292,0.827 3.257,0.68C4.44,0.499 5.551,0.513 6.723,0.806C7.142,0.911 7.321,0.26 6.901,0.161C5.468,-0.18 4.055,-0.137 2.615,0.157C1.638,0.357 0.213,0.493 -0.381,1.392C-0.538,1.63 -0.196,1.866 0,1.686" style="fill:rgb(35,31,32);fill-rule:nonzero;"/>
            </g>
        </g>
        <g transform="matrix(5.55556,0,0,5.55556,18159.4,9566.93)">
            <g transform="matrix(1,0,0,1,294.51,132.242)">
                <path d="M0,-6.48C0.181,0.707 6.395,6.442 13.711,5.083C21.032,3.724 23.71,-6.641 21.141,-12.818C20.993,-13.173 20.427,-13.047 20.544,-12.653C22.095,-7.489 20.968,1.557 15.253,3.812C7.952,6.693 1.146,0.75 0.669,-6.48C0.642,-6.906 -0.011,-6.915 0,-6.48" style="fill:rgb(35,31,32);fill-rule:nonzero;"/>
            </g>
        </g>
        <g transform="matrix(5.55556,0,0,5.55556,18159.4,9566.93)">
            <g transform="matrix(1,0,0,1,264.403,126.639)">
                <path d="M0,-4.672C-2.112,-6.089 -2.36,-0.659 -1.898,0.284C-1.571,0.949 -0.602,1.417 -0.167,0.605C0.12,0.072 0.048,-0.863 0.123,-1.456C0.244,-2.412 0.388,-3.368 0.467,-4.329C0.496,-4.683 -0.101,-4.769 -0.16,-4.414C-0.271,-3.75 -0.344,-3.082 -0.425,-2.414C-0.493,-1.861 -0.422,-0.778 -0.682,-0.307C-0.969,0.214 -1.398,-0.465 -1.443,-0.887C-1.479,-1.222 -1.381,-1.664 -1.354,-1.996C-1.273,-3.007 -1.472,-4.184 -0.087,-4.351C0.08,-4.372 0.15,-4.571 0,-4.672" style="fill:rgb(35,31,32);fill-rule:nonzero;"/>
            </g>
        </g>
        <g transform="matrix(5.55556,0,0,5.55556,18159.4,9566.93)">
            <g transform="matrix(-0.0339178,0.999425,0.999425,0.0339178,247.622,110.093)">
                <path d="M15.294,-9.324C8.739,-2.157 15.174,7.241 15.989,15.305C16.035,15.752 15.355,15.932 15.294,15.471C14.199,7.063 8.006,-2.466 14.763,-9.892C15.1,-10.263 15.631,-9.692 15.294,-9.324" style="fill:rgb(35,31,32);fill-rule:nonzero;"/>
            </g>
        </g>
        <g transform="matrix(5.55556,0,0,5.55556,18159.4,9566.93)">
            <g transform="matrix(1,0,0,1,234.294,125.709)">
                <path d="M0,-4.875C-0.728,-3.55 -1.242,-2.047 -0.215,-0.708C0.674,0.454 2.498,0.333 3.481,-0.657C3.823,-1.001 3.295,-1.528 2.949,-1.189C2.066,-0.324 0.563,-0.512 0.134,-1.702C-0.229,-2.707 0.206,-3.589 0.694,-4.47C0.945,-4.922 0.25,-5.329 0,-4.875" style="fill:rgb(35,31,32);fill-rule:nonzero;"/>
            </g>
        </g>
        <g transform="matrix(5.55556,0,0,5.55556,18159.4,9566.93)">
            <g transform="matrix(0.0170002,-0.999855,-0.999855,-0.0170002,254.113,102.415)">
                <path d="M-19.144,-10.016C-17.181,-1.938 -9.316,13.489 -18.757,19.497C-19.187,19.771 -19.571,19.081 -19.144,18.807C-10.054,12.982 -18.529,-1.889 -19.836,-9.838C-19.91,-10.284 -19.254,-10.47 -19.144,-10.016" style="fill:rgb(35,31,32);fill-rule:nonzero;"/>
            </g>
        </g>
        <g transform="matrix(5.55556,0,0,5.55556,18159.4,9566.93)">
            <g transform="matrix(1,0,0,1,315.416,116.324)">
                <path d="M0,2.771C-5.501,-0.312 -13.42,-0.638 -19.623,-1.014C-24.532,-1.312 -29.948,-1.149 -32.274,3.892C-32.447,4.266 -31.908,4.597 -31.712,4.22C-28.567,-1.826 -20.745,-0.523 -15.112,0.094C-10.012,0.654 -5.05,1.67 -0.112,3.039C0.046,3.083 0.147,2.853 0,2.771" style="fill:rgb(35,31,32);fill-rule:nonzero;"/>
            </g>
        </g>
        <g transform="matrix(5.55556,0,0,5.55556,18159.4,9566.93)">
            <g transform="matrix(-0.180711,-0.983536,-0.983536,0.180711,291.255,114.035)">
                <path d="M-7.149,-7.177C-5.019,-3.026 -4.206,1.659 -6.54,5.822C-6.775,6.24 -7.372,5.814 -7.149,5.401C-4.97,1.353 -6.114,-2.925 -7.395,-7.096C-7.439,-7.241 -7.214,-7.303 -7.149,-7.177" style="fill:rgb(35,31,32);fill-rule:nonzero;"/>
            </g>
        </g>
        <g transform="matrix(5.55556,0,0,5.55556,18159.4,9566.93)">
            <g transform="matrix(0.0790947,0.996867,0.996867,-0.0790947,273.314,114.558)">
                <path d="M10.34,-7.157C9.088,-1.6 8.311,5.511 10.924,10.809C11.09,11.146 10.537,11.43 10.34,11.112C7.241,6.096 8.509,-1.873 9.826,-7.255C9.906,-7.581 10.415,-7.488 10.34,-7.157" style="fill:rgb(35,31,32);fill-rule:nonzero;"/>
            </g>
        </g>
        <g transform="matrix(5.55556,0,0,5.55556,18159.4,9566.93)">
            <g transform="matrix(1,0,0,1,266.348,136.022)">
                <path d="M0,-10.56C0.084,-4.97 3.482,1.378 9.89,1.003C16.79,0.6 18.969,-5.456 19.521,-11.39C19.572,-11.938 18.721,-11.931 18.666,-11.39C18.137,-6.21 16.537,-0.639 10.471,0.121C4.1,0.919 0.879,-5.033 0.574,-10.56C0.554,-10.926 -0.006,-10.932 0,-10.56" style="fill:rgb(35,31,32);fill-rule:nonzero;"/>
            </g>
        </g>
        <g transform="matrix(5.55556,0,0,5.55556,18159.4,9566.93)">
            <g transform="matrix(1,0,0,1,297.221,120.208)">
                <path d="M0,4.188C1.79,2.531 5.263,2.007 7.575,1.484C10.761,0.763 13.758,0.581 16.957,1.266C17.424,1.366 17.625,0.646 17.155,0.546C13.652,-0.193 10.244,0.084 6.786,0.939C4.554,1.491 1.047,1.883 -0.411,3.871C-0.592,4.119 -0.208,4.381 0,4.188" style="fill:rgb(35,31,32);fill-rule:nonzero;"/>
            </g>
        </g>
        <g transform="matrix(5.55556,0,0,5.55556,18159.4,9566.93)">
            <g transform="matrix(1,0,0,1,296.83,131.299)">
                <path d="M0,-6.708C0.065,-1.44 4.853,3.771 10.313,3.186C17.019,2.467 17.985,-4.453 17.709,-9.921C17.681,-10.477 16.81,-10.479 16.841,-9.921C17.111,-5.114 16.659,1.291 10.734,2.287C5.569,3.156 0.826,-1.643 0.593,-6.708C0.576,-7.087 -0.005,-7.092 0,-6.708" style="fill:rgb(35,31,32);fill-rule:nonzero;"/>
            </g>
        </g>
    </g>
</svg>
